X:16866
T:The Humours of Castlefin
C:Irish
R:reel
S:Tune of the Month, Dec. 2001, Sivler Apple News 8
D:An Historic Recording... Paddy Canny, P.J. Hayes, Peadar O'Loughlin, Bridie Lafferty
Q:300
L:1/8
M:C|
K:EAeo
BE E2 BE E2|AD (3(FED) FGAc|BE E2 BFAF|GBAF E2 FA:|!
B2 ed efge|defg (a/g/f) ed|B2 ed efge|agfa (g/f/e) ed|!
B2 ed efge|defg afdf|efga bagf|(3(efe) fd eddc|]!
